fonts/xesada/tmp.svg

<?xml version="1.0" encoding="UTF-8" standalone="no"?>
<svg width="500" height="850" version="1.1" id="svg1" sodipodi:docname="tmp.svg"
    inkscape:version="1.4.2 (ebf0e940, 2025-05-08)" xmlns:inkscape="http://www.inkscape.org/namespaces/inkscape"
    xmlns:sodipodi="http://sodipodi.sourceforge.net/DTD/sodipodi-0.dtd" xmlns="http://www.w3.org/2000/svg"
    xmlns:svg="http://www.w3.org/2000/svg">
    <defs id="defs1" />
    <path
        d="m 76.794922,500 -21.650391,12.5 v 25 L 250,650 444.85547,537.5 v -25 L 423.20508,500 401.55469,512.5 250,600 98.445312,512.5 Z"
        id="path2" />
    <path
        d="M 250,200 55.144531,312.5 v 25 L 76.794922,350 98.445312,337.5 250,250 l 151.55469,87.5 21.65039,12.5 21.65039,-12.5 v -25 z"
        id="path1" />
</svg>

<svg width="500" height="850" xmlns="http://www.w3.org/2000/svg">
    <path
        d="M 250 200 L 55.144531 312.5 L 55.144531 337.5 L 76.794922 350 L 98.445312 337.5 L 250 250 L 401.55469 337.5 L 423.20508 350 L 444.85547 337.5 L 444.85547 312.5 L 250 200 z M 76.794922 500 L 55.144531 512.5 L 55.144531 537.5 L 250 650 L 444.85547 537.5 L 444.85547 512.5 L 423.20508 500 L 401.55469 512.5 L 250 600 L 98.445312 512.5 L 76.794922 500 z " />
</svg>
